X:13
T: ES IST EIN WIRTHSHAUS AN DEM RHEIN
N: Z0014
O: Europa, Mitteleuropa, Deutschland, Rheinland
R: Sagen - Lied, Romanze
M: 2/4
L: 1/16
K: F
 | C4F2A2 | c6A2 | G2A2G2 | F6
f4e2d2 | c4c4 | B2d2c2 | c6
C4F2A2 | c6A2 | G2A2G2 | F6
f4e2d2 | c4c4 | B2d2c2 | c6 | z4
c4 | A2c2cccc | f2f2d2d2
d2d2dfed | d2c2c2
c2 | c2c2dcBA | B4c4 | F4z4

